svg/instrument_triangle.svg

<svg xmlns="http://www.w3.org/2000/svg" viewBox="0 0 24 24"><path d="M11.5 2h-1v4.2c-.1.1-.2.1-.3.3L2.1 20.7c-.3.6.1 1.3.8 1.3H16v-2H4.8L11 9.2l5.7 10 1.7-1-6.6-11.8-.3-.3zM21 6h-1v12l-.5 4h2l-.5-4z"/></svg>

<?xml version="1.0" encoding="UTF-8"?><!DOCTYPE svg PUBLIC "-//W3C//DTD SVG 1.1//EN" "http://www.w3.org/Graphics/SVG/1.1/DTD/svg11.dtd"><svg xmlns="http://www.w3.org/2000/svg" xmlns:xlink="http://www.w3.org/1999/xlink" version="1.1" id="mdi-instrument-triangle" width="24" height="24" viewBox="0 0 24 24"><path d="M11.5 2H10.5V6.2C10.4 6.3 10.3 6.3 10.2 6.5L2.1 20.7C1.8 21.3 2.2 22 2.9 22H16V20H4.8L11 9.2L16.7 19.2L18.4 18.2L11.8 6.4L11.5 6.1V2M21 6H20V18L19.5 22H21.5L21 18V6Z" /></svg>
